X: 171
T: Aşkımın İlkbaharı
C: Ârif Sâmi Toker
O: Turkey
F: http://compmusic.upf.edu/node/140
N: nihavent--sarki--duyek--askimin_ilk--arif_sami_toker
N: makam= nihavent
N: form= sarki
N: usul= duyek = 8/4
M: 8/4
L: 1/16
K: C _B _e  
Q: 1/4=132
%%MIDI tuningsystem comma53
z2 G4 B2 d3/2^c/ d2 B3/2A/ B2  | GB dg ^fe d^c db ag fe dc  | 
w:   |   | 
d3/2^c/ d2 ^f3/2e/ f2 ag2b ag fe  | \
w:   | 
db ag ^fe d^c d2 (3dfa d'4  | 
w:   | 
ff2f g/f/e/d/ e2 ee2a e3/2d/ c2  | \
w:   | 
ee2e f/e/d/c/ d2 cc2g c3/2B/ A2  | 
w:   | 
zG AB ce d^c d^f2a e3/2d/ =c2  | zA Bc (3d^cd (3BAG (3ed=c (3BAG (3^FGA G2  | 
w:   |   | 
G2 G4 B2 d4 d4  | d2 {d}g2 d2 ed d8  | \
w:  *  Aş kı mın_ ilk   |  ba *  hâ *  *  *  rı   | 
z2 d4 b2 a2 {a}g2 g2 f2  | f2 gf e2 ed d2 Ac BA G^F  | 
w:  ilk  he ye *  câ  |  *  nım  *  *  be *  nim   SAZ  | 
G2 G4 B2 d4 d4  | d2 {d}g2 d2 ed d8  | \
w:  *  Aş kı mın_ ilk   |  ba *  hâ *  *  *  rı   | 
z2 d4 b2 a2 {a}g2 g2 f2  | f2 gf e2 ed d8  | 
w:  ilk  he ye *  câ  |  *  nım  *  *  be *  nim    | 
G3/2^F/ G2 B3/2A/ B2 d^c dg ^fe dc  | \
w:  SAZ  | 
db ag ^fe d^c d2 (3dfa d'4  | 
w:   | 
z2 d4 _2/4e2 f8  | f2 g4 gf fe ed e4  | \
w:  Sev gi lim_  |  i ki  gö *  züm   | 
z4 d2 e2 d4 c4  | z2 B4 BA A8  | 
w:  bi ri cik  câ  |  nım  be *  nim    | 
z2 G4 B2 d4 g4  | a2 b2 a2 g2 fe df e3/2d/ e2  | \
w:  Sev gi lim   |  i ki  *  gö züm   | 
z4 A2 B2 A4 {c}d4  | 
w:  bi ri cik  *  câ  | 
z2 B4 AG G8  | z2 ab ab ag ag gf g4  | \
w:  nım  be *  nim    |  SAZ  | 
z4 a2 ag g8  | 
w:  E şi  *  yok   | 
a2 b2 a2 ba a8  | a2 b6 a4 g4  | g2 ^f2 g2 gf f8  | \
w:  me nen *  di  *  yok   |  gö nül  sul tâ  |  *  nım  *  be *  nim    | 
z4 a2 ag g8  | 
w:  E şi  *  yok   | 
a2 b2 a2 g2 fe df e4  | d2 e6 e2 d2 a2 g2  | \
w:  me nen *  di  yok    |  gö nül  sul *  tâ  | 
f2 gf e2 ed d8  | 
w:  *  nım  *  *  be *  nim    | 
G3/2^F/ G2 B3/2A/ B2 d^c dg ^fe dc  | \
w:  SAZ  | 
db ag ^fe d^c d2 (3dfa d'4  | 
w:   | 
z2 d4 _2/4e2 f8  | f2 g4 gf fe ed e4  | \
w:  Sev gi lim_  |  i ki  gö *  züm   | 
z4 d2 e2 d4 c4  | z2 B4 BA A8  | 
w:  bi ri cik  câ  |  nım  be *  nim    | 
z2 G4 B2 d4 g4  | a2 b2 a2 g2 fe df e3/2d/ e2  | \
w:  Sev gi lim   |  i ki  *  gö züm   | 
z4 A2 B2 A4 {c}d4  | 
w:  bi ri cik  *  câ  | 
z2 B4 AG G8  | |


